X: 21781
T: THE BALL MARCH (New)
C: By Wm. Findlay
R: march
B: K\"ohler's Violin Repository, v.2, 1885 p.178 #1
F: http://www.archive.org/details/klersviolinrepos02rugg
Z: 2012 John Chambers <jc:trillian.mit.edu>
M: C|
L: 1/8
K: D
uF>A |\
d2 (.A>.d) f2 (.d>.f) | a(b/a/) gf [e2A2] (.A>.c) | e2 (.c>.e) g2 (.e>.g) | (b/a/).g/.f/ (a/g/).f/.e/ dABc |\
d2 (.A>.d) f2 (.d>.f) | a(b/a/) gf e2 (g>f) | edcB (A/^G/)A/B/ (c/B/).c/.e/ | d2 (.d>.d) d2 :|
|: u(f>g) |\
a2 (g/f/e/d/) cBAG | F2 (.D>.D) D2 (E>F) | GBed cAgf | [e2A2] (.[eA]>.[eA]) [e2A2] (f>g) |\
a2 (g/f/e/d/) cBAG | F2 (.A>.A) A2 (B>c) | db ca Bg Ac | d2 (.d>.d) "^Fine."d2 :|

%%sep 2 1 500

